packages/match-logos/mono/svg/carwow.svg

<svg fill="none" height="20" viewBox="0 0 122 20" width="122" xmlns="http://www.w3.org/2000/svg" xmlns:xlink="http://www.w3.org/1999/xlink"><clipPath id="a"><path d="m0 0h121.951v20h-121.951z"/></clipPath><g clip-path="url(#a)"><path d="m16.2927 17.0732c-.2927.2927-.6829.6829-1.2195.9756-.4391.2927-.9756.5366-1.6098.7805-.5854.2439-1.2195.3902-1.8049.5366-.6829.1463-1.317.2439-1.9024.2439-1.31708 0-2.58537-.2439-3.80488-.7805s-2.19512-1.2195-3.12195-2.0488-1.60976-1.9025-2.048782-3.122c-.536586-1.2195-.780488-2.439-.780488-3.85362 0-1.31707.243902-2.58537.780488-3.80488.536582-1.21951 1.219512-2.19512 2.048782-3.12195.92683-.82927 1.90244-1.5122 3.12195-2.048782 1.21951-.536585 2.43902-.7804875 3.80488-.7804875 1.1219 0 2.2927.1463415 3.2683.4390245 1.0732.292683 2 .780485 2.7317 1.463415.5854.53658.9268 1.12195.9268 1.80488 0 .43902-.1463.82927-.439 1.21951-.439.58537-1.0732.92683-1.8049.92683-.5366 0-.9756-.14634-1.4634-.39024-.439-.29269-.9756-.53659-1.4634-.68293-.5366-.14634-1.0732-.2439-1.7561-.2439-.78049 0-1.36586.14634-2 .43902-.58537.14634-1.07317.53659-1.46342.97561-.39024.43902-.68292.97561-.92683 1.65854-.2439.58536-.29268 1.31707-.29268 2 0 .68296.09756 1.36586.29268 1.99996.19512.6342.53659 1.2195.92683 1.6586.39025.439.82927.8292 1.46342 1.1219.53658.2927 1.21951.439 2 .439.9268 0 1.6585-.1463 2.1951-.439.5854-.2927 1.0732-.5853 1.4634-.8292.4391-.2927.9756-.5366 1.6098-.5366.5854 0 1.1219.2439 1.6097.6829.2927.439.5366.9268.5366 1.3659-.1951.878-.3902 1.4146-.878 1.9512zm19.3658 1.5122c-.439.439-1.0731.6829-1.7561.6829-.6829 0-1.317-.2439-1.7561-.7805-.439-.5366-.7805-1.1219-.7805-1.8049-.1463.2927-.3902.5854-.6829.9756-.2927.2927-.7805.5854-1.2195.9269-.439.2926-.9756.439-1.6097.6829-.5854.1463-1.122.2439-1.8049.2439-1.3171 0-2.439-.2439-3.561-.7805-1.0732-.5366-2.0488-1.2195-2.878-2.0488-.8293-.8292-1.4635-1.9024-1.9025-3.1219s-.6829-2.439-.6829-3.8049c0-1.31708.2439-2.58537.7805-3.80488s1.2195-2.19512 2.0488-3.12195c.8292-.82927 1.9024-1.60976 3.1219-2.048782 1.2195-.439025 2.3902-.780488 3.7561-.780488 1.3171 0 2.5854.243902 3.8049.780488 1.2195.536582 2.1951 1.219512 3.1219 2.048782.8293.92683 1.6098 1.90244 2.0488 3.12195.5366 1.21951.7805 2.43902.7805 3.80488v7.0732c-.1463.6829-.3902 1.317-.8293 1.7561zm-4.7317-10.8293c-.1463-.58537-.439-1.12195-.8292-1.60976-.3903-.43902-.9269-.82927-1.4635-1.07317-.5853-.29268-1.2195-.43902-2-.43902-.7804 0-1.3658.14634-2 .39024-.5365.29268-1.0731.58537-1.4634 1.07317-.3902.43903-.6829.97561-.9268 1.60976-.2439.58536-.2927 1.31707-.2927 2 0 .68288.0976 1.36588.2927 1.99998.1463.5854.439 1.122.8293 1.6098.3902.4878.8292.8292 1.3658 1.0731.5366.2927 1.2195.3903 1.9025.3903.7804 0 1.3658-.1464 2-.3903.5853-.2926 1.0731-.5853 1.4634-1.0731.3902-.4878.7805-.9756.9756-1.6098.2439-.5853.2927-1.3171.2927-1.99998.1463-.63415.0975-1.31708-.1464-1.95122zm19.7073-3.80488c-.439.43902-.9756.68293-1.6585.68293-.7805 0-1.5122.09756-2.2927.29268-.7805.14634-1.4634.43902-2 .82927-.5854.39024-1.0732.92683-1.3658 1.51219-.3903.58537-.5366 1.36586-.5366 2.19513v7.21948c0 .683-.2439 1.3171-.7805 1.8049-.439.439-1.0732.7805-1.8049.7805-.6829 0-1.3171-.2439-1.8049-.7805-.5366-.439-.7805-1.0732-.7805-1.8049v-13.85363c0-.68293.2439-1.31707.7805-1.80488.5366-.487805 1.122-.780488 1.8049-.780488s1.3171.243903 1.7561.780488c.439.53659.6829 1.12195.6829 1.80488.4391-.53659.9269-.97561 1.3659-1.36586.439-.39024.9268-.585361 1.3658-.829264.4391-.243902.9757-.390244 1.6098-.439024.6829 0 1.3171-.097561 2-.097561s1.2195.243902 1.6098.682927c.439.439022.6829.975612.6829 1.609752 0 .63415-.1464 1.17074-.6342 1.56098zm27.2683-.97561c0 .14634-.0975.29268-.1463.43902l-5.4634 14.48777c-.1464.4391-.4391.8293-.8293 1.0732s-.8293.3903-1.3171.3903c-.439 0-.9268-.1464-1.317-.4391-.3903-.2927-.683-.6829-.8293-1.0731l-2.8781-8.14638-2.878 8.14638c-.1464.439-.439.8292-.8293 1.0731-.3902.2927-.8292.4391-1.3171.4391-.4878 0-.9268-.1464-1.317-.3903-.3903-.2439-.683-.5854-.8293-1.0732l-5.4634-14.48777c-.0976-.14634-.0976-.29268-.1463-.43902 0-.14634-.0976-.29268-.0976-.43902 0-.68293.2439-1.21952.6829-1.658541.439-.439025.9756-.682927 1.6586-.682927.439 0 .9268.146341 1.317.390244.3903.243902.5854.585364.8293 1.073174l3.2195 8.82926 3.122-8.78048c.1463-.43903.439-.829271.8292-1.073174.3903-.292683.7805-.439024 1.3171-.439024.439 0 .9268.146341 1.3171.439024.3902.292683.5853.682924.8292 1.073174l3.122 8.78048 3.2195-8.78048c.1463-.43903.439-.829271.8293-1.073174.3902-.292683.8292-.390244 1.317-.390244.683 0 1.2196.243903 1.6098.682927.439.439021.6829.975611.6829 1.658541-.2439.14634-.2439.29268-.2439.39024zm18.1464 10.58539c-.5366 1.2195-1.2196 2.1951-2.0488 3.1219-.9268.9269-1.9025 1.6098-3.122 2.0488-1.2195.5366-2.439.7805-3.8048.7805-1.3171 0-2.5854-.2439-3.8049-.7805s-2.1951-1.2195-3.122-2.0488c-.9268-.8292-1.6097-1.9024-2.0488-3.1219-.5365-1.2195-.7804-2.439-.7804-3.8049 0-1.31708.2439-2.58537.7804-3.80488.5366-1.21951 1.2196-2.19512 2.0488-3.12195.8293-.82927 1.9025-1.60976 3.122-2.048782 1.2195-.536586 2.439-.780488 3.8049-.780488 1.317 0 2.5853.243902 3.8048.780488 1.2195.536582 2.1952 1.219512 3.122 2.048782.8292.92683 1.6097 1.90244 2.0488 3.12195.5365 1.21951.7804 2.43902.7804 3.80488 0 1.3659-.3414 2.5854-.7804 3.8049zm-4.6342-5.8049c-.2439-.58537-.5366-1.12195-.9268-1.60976-.3903-.4878-.9268-.82927-1.4634-1.07317-.5366-.29268-1.2195-.39024-2-.39024s-1.3659.14634-2 .39024c-.5366.29268-1.0732.58537-1.4634 1.07317-.3903.43903-.683.97561-.9269 1.60976-.2439.58536-.2927 1.31707-.2927 2 0 .6829.0976 1.3659.2927 2s.4391 1.1219.9269 1.6098c.3902.439.8292.8292 1.4634 1.0731.5366.2927 1.2195.3903 2 .3903s1.3658-.1464 2-.3903c.5366-.2927 1.0731-.5853 1.4634-1.0731.3902-.4391.6829-.9757.9268-1.6098.2439-.5854.2927-1.3171.2927-2 0-.68293-.1463-1.36586-.2927-2zm30.3904-4.78049c0 .14634-.098.29268-.146.43902l-5.464 14.48777c-.146.4391-.439.8293-.829 1.0732s-.829.3903-1.317.3903c-.439 0-.927-.1464-1.317-.4391-.391-.2927-.683-.6829-.83-1.0731l-2.878-8.14638-2.878 8.14638c-.146.439-.439.8292-.829 1.0731-.39.2927-.829.4391-1.317.4391-.439 0-.927-.1464-1.317-.3903s-.683-.5854-.829-1.0732l-5.5126-14.48777c-.0975-.14634-.0975-.29268-.1463-.43902 0-.14634-.0976-.29268-.0976-.43902 0-.68293.2439-1.21952.683-1.658541.439-.439025.9756-.682927 1.6585-.682927.439 0 .9268.146341 1.3171.390244.3899.243902.5849.585364.8289 1.073174l3.22 8.82926 3.122-8.78048c.146-.43903.439-.829271.829-1.073174.39-.292683.781-.439024 1.317-.439024.439 0 .927.146341 1.317.439024s.586.682924.829 1.073174l3.122 8.78048 3.22-8.78048c.146-.43903.439-.829271.829-1.073174.39-.292683.829-.390244 1.317-.390244.683 0 1.22.243903 1.61.682927.439.439021.683.975611.683 1.658541-.146.14634-.146.29268-.195.39024z" fill="#1f304c"/></g></svg>

<svg width="122" height="20" viewBox="0 0 122 20" fill="none" xmlns="http://www.w3.org/2000/svg">
<g clip-path="url(#clip0)">
<path d="M16.2927 17.0732C16 17.3659 15.6098 17.7561 15.0732 18.0488C14.6341 18.3415 14.0976 18.5854 13.4634 18.8293C12.878 19.0732 12.2439 19.2195 11.6585 19.3659C10.9756 19.5122 10.3415 19.6098 9.7561 19.6098C8.43902 19.6098 7.17073 19.3659 5.95122 18.8293C4.73171 18.2927 3.7561 17.6098 2.82927 16.7805C1.90244 15.9512 1.21951 14.878 0.780488 13.6585C0.243902 12.439 0 11.2195 0 9.80488C0 8.48781 0.243902 7.21951 0.780488 6C1.31707 4.78049 2 3.80488 2.82927 2.87805C3.7561 2.04878 4.73171 1.36585 5.95122 0.829268C7.17073 0.292683 8.39024 0.0487805 9.7561 0.0487805C10.878 0.0487805 12.0488 0.195122 13.0244 0.487805C14.0976 0.780488 15.0244 1.26829 15.7561 1.95122C16.3415 2.4878 16.6829 3.07317 16.6829 3.7561C16.6829 4.19512 16.5366 4.58537 16.2439 4.97561C15.8049 5.56098 15.1707 5.90244 14.439 5.90244C13.9024 5.90244 13.4634 5.7561 12.9756 5.5122C12.5366 5.21951 12 4.97561 11.5122 4.82927C10.9756 4.68293 10.439 4.58537 9.7561 4.58537C8.97561 4.58537 8.39024 4.73171 7.7561 5.02439C7.17073 5.17073 6.68293 5.56098 6.29268 6C5.90244 6.43902 5.60976 6.97561 5.36585 7.65854C5.12195 8.2439 5.07317 8.97561 5.07317 9.65854C5.07317 10.3415 5.17073 11.0244 5.36585 11.6585C5.56097 12.2927 5.90244 12.878 6.29268 13.3171C6.68293 13.7561 7.12195 14.1463 7.7561 14.439C8.29268 14.7317 8.97561 14.878 9.7561 14.878C10.6829 14.878 11.4146 14.7317 11.9512 14.439C12.5366 14.1463 13.0244 13.8537 13.4146 13.6098C13.8537 13.3171 14.3902 13.0732 15.0244 13.0732C15.6098 13.0732 16.1463 13.3171 16.6341 13.7561C16.9268 14.1951 17.1707 14.6829 17.1707 15.122C16.9756 16 16.7805 16.5366 16.2927 17.0732ZM35.6585 18.5854C35.2195 19.0244 34.5854 19.2683 33.9024 19.2683C33.2195 19.2683 32.5854 19.0244 32.1463 18.4878C31.7073 17.9512 31.3658 17.3659 31.3658 16.6829C31.2195 16.9756 30.9756 17.2683 30.6829 17.6585C30.3902 17.9512 29.9024 18.2439 29.4634 18.5854C29.0244 18.878 28.4878 19.0244 27.8537 19.2683C27.2683 19.4146 26.7317 19.5122 26.0488 19.5122C24.7317 19.5122 23.6098 19.2683 22.4878 18.7317C21.4146 18.1951 20.439 17.5122 19.6098 16.6829C18.7805 15.8537 18.1463 14.7805 17.7073 13.561C17.2683 12.3415 17.0244 11.122 17.0244 9.7561C17.0244 8.43902 17.2683 7.17073 17.8049 5.95122C18.3415 4.73171 19.0244 3.7561 19.8537 2.82927C20.6829 2 21.7561 1.21951 22.9756 0.780488C24.1951 0.341463 25.3658 0 26.7317 0C28.0488 0 29.3171 0.243902 30.5366 0.780488C31.7561 1.31707 32.7317 2 33.6585 2.82927C34.4878 3.7561 35.2683 4.73171 35.7073 5.95122C36.2439 7.17073 36.4878 8.39024 36.4878 9.7561V16.8293C36.3415 17.5122 36.0976 18.1463 35.6585 18.5854ZM30.9268 7.7561C30.7805 7.17073 30.4878 6.63415 30.0976 6.14634C29.7073 5.70732 29.1707 5.31707 28.6341 5.07317C28.0488 4.78049 27.4146 4.63415 26.6341 4.63415C25.8537 4.63415 25.2683 4.78049 24.6341 5.02439C24.0976 5.31707 23.561 5.60976 23.1707 6.09756C22.7805 6.53659 22.4878 7.07317 22.2439 7.70732C22 8.29268 21.9512 9.02439 21.9512 9.70732C21.9512 10.3902 22.0488 11.0732 22.2439 11.7073C22.3902 12.2927 22.6829 12.8293 23.0732 13.3171C23.4634 13.8049 23.9024 14.1463 24.439 14.3902C24.9756 14.6829 25.6585 14.7805 26.3415 14.7805C27.1219 14.7805 27.7073 14.6341 28.3415 14.3902C28.9268 14.0976 29.4146 13.8049 29.8049 13.3171C30.1951 12.8293 30.5854 12.3415 30.7805 11.7073C31.0244 11.122 31.0732 10.3902 31.0732 9.70732C31.2195 9.07317 31.1707 8.39024 30.9268 7.7561ZM50.6341 3.95122C50.1951 4.39024 49.6585 4.63415 48.9756 4.63415C48.1951 4.63415 47.4634 4.73171 46.6829 4.92683C45.9024 5.07317 45.2195 5.36585 44.6829 5.7561C44.0975 6.14634 43.6097 6.68293 43.3171 7.26829C42.9268 7.85366 42.7805 8.63415 42.7805 9.46342V16.6829C42.7805 17.3659 42.5366 18 42 18.4878C41.561 18.9268 40.9268 19.2683 40.1951 19.2683C39.5122 19.2683 38.878 19.0244 38.3902 18.4878C37.8536 18.0488 37.6097 17.4146 37.6097 16.6829V2.82927C37.6097 2.14634 37.8536 1.5122 38.3902 1.02439C38.9268 0.536585 39.5122 0.243902 40.1951 0.243902C40.878 0.243902 41.5122 0.487805 41.9512 1.02439C42.3902 1.56098 42.6341 2.14634 42.6341 2.82927C43.0732 2.29268 43.561 1.85366 44 1.46341C44.439 1.07317 44.9268 0.878049 45.3658 0.634146C45.8049 0.390244 46.3415 0.243902 46.9756 0.195122C47.6585 0.195122 48.2927 0.097561 48.9756 0.097561C49.6585 0.097561 50.1951 0.341463 50.5854 0.780488C51.0244 1.21951 51.2683 1.7561 51.2683 2.39024C51.2683 3.02439 51.1219 3.56098 50.6341 3.95122ZM77.9024 2.97561C77.9024 3.12195 77.8049 3.26829 77.7561 3.41463L72.2927 17.9024C72.1463 18.3415 71.8536 18.7317 71.4634 18.9756C71.0732 19.2195 70.6341 19.3659 70.1463 19.3659C69.7073 19.3659 69.2195 19.2195 68.8293 18.9268C68.439 18.6341 68.1463 18.2439 68 17.8537L65.1219 9.70732L62.2439 17.8537C62.0975 18.2927 61.8049 18.6829 61.4146 18.9268C61.0244 19.2195 60.5854 19.3659 60.0975 19.3659C59.6097 19.3659 59.1707 19.2195 58.7805 18.9756C58.3902 18.7317 58.0975 18.3902 57.9512 17.9024L52.4878 3.41463C52.3902 3.26829 52.3902 3.12195 52.3415 2.97561C52.3415 2.82927 52.2439 2.68293 52.2439 2.53659C52.2439 1.85366 52.4878 1.31707 52.9268 0.878049C53.3658 0.439024 53.9024 0.195122 54.5854 0.195122C55.0244 0.195122 55.5122 0.341463 55.9024 0.585366C56.2927 0.829268 56.4878 1.17073 56.7317 1.65854L59.9512 10.4878L63.0732 1.70732C63.2195 1.26829 63.5122 0.878049 63.9024 0.634146C64.2927 0.341463 64.6829 0.195122 65.2195 0.195122C65.6585 0.195122 66.1463 0.341463 66.5366 0.634146C66.9268 0.926829 67.1219 1.31707 67.3658 1.70732L70.4878 10.4878L73.7073 1.70732C73.8536 1.26829 74.1463 0.878049 74.5366 0.634146C74.9268 0.341463 75.3658 0.243902 75.8536 0.243902C76.5366 0.243902 77.0732 0.487805 77.4634 0.926829C77.9024 1.36585 78.1463 1.90244 78.1463 2.58537C77.9024 2.73171 77.9024 2.87805 77.9024 2.97561ZM96.0488 13.561C95.5122 14.7805 94.8292 15.7561 94 16.6829C93.0732 17.6098 92.0975 18.2927 90.878 18.7317C89.6585 19.2683 88.439 19.5122 87.0732 19.5122C85.7561 19.5122 84.4878 19.2683 83.2683 18.7317C82.0488 18.1951 81.0732 17.5122 80.1463 16.6829C79.2195 15.8537 78.5366 14.7805 78.0975 13.561C77.561 12.3415 77.3171 11.122 77.3171 9.7561C77.3171 8.43902 77.561 7.17073 78.0975 5.95122C78.6341 4.73171 79.3171 3.7561 80.1463 2.82927C80.9756 2 82.0488 1.21951 83.2683 0.780488C84.4878 0.243902 85.7073 0 87.0732 0C88.3902 0 89.6585 0.243902 90.878 0.780488C92.0975 1.31707 93.0732 2 94 2.82927C94.8292 3.7561 95.6097 4.73171 96.0488 5.95122C96.5853 7.17073 96.8292 8.39024 96.8292 9.7561C96.8292 11.122 96.4878 12.3415 96.0488 13.561ZM91.4146 7.7561C91.1707 7.17073 90.878 6.63415 90.4878 6.14634C90.0975 5.65854 89.561 5.31707 89.0244 5.07317C88.4878 4.78049 87.8049 4.68293 87.0244 4.68293C86.2439 4.68293 85.6585 4.82927 85.0244 5.07317C84.4878 5.36585 83.9512 5.65854 83.561 6.14634C83.1707 6.58537 82.878 7.12195 82.6341 7.7561C82.3902 8.34146 82.3414 9.07317 82.3414 9.7561C82.3414 10.439 82.439 11.122 82.6341 11.7561C82.8292 12.3902 83.0732 12.878 83.561 13.3659C83.9512 13.8049 84.3902 14.1951 85.0244 14.439C85.561 14.7317 86.2439 14.8293 87.0244 14.8293C87.8049 14.8293 88.3902 14.6829 89.0244 14.439C89.561 14.1463 90.0975 13.8537 90.4878 13.3659C90.878 12.9268 91.1707 12.3902 91.4146 11.7561C91.6585 11.1707 91.7073 10.439 91.7073 9.7561C91.7073 9.07317 91.561 8.39024 91.4146 7.7561ZM121.805 2.97561C121.805 3.12195 121.707 3.26829 121.659 3.41463L116.195 17.9024C116.049 18.3415 115.756 18.7317 115.366 18.9756C114.976 19.2195 114.537 19.3659 114.049 19.3659C113.61 19.3659 113.122 19.2195 112.732 18.9268C112.341 18.6341 112.049 18.2439 111.902 17.8537L109.024 9.70732L106.146 17.8537C106 18.2927 105.707 18.6829 105.317 18.9268C104.927 19.2195 104.488 19.3659 104 19.3659C103.561 19.3659 103.073 19.2195 102.683 18.9756C102.293 18.7317 102 18.3902 101.854 17.9024L96.3414 3.41463C96.2439 3.26829 96.2439 3.12195 96.1951 2.97561C96.1951 2.82927 96.0975 2.68293 96.0975 2.53659C96.0975 1.85366 96.3414 1.31707 96.7805 0.878049C97.2195 0.439024 97.7561 0.195122 98.439 0.195122C98.878 0.195122 99.3658 0.341463 99.7561 0.585366C100.146 0.829268 100.341 1.17073 100.585 1.65854L103.805 10.4878L106.927 1.70732C107.073 1.26829 107.366 0.878049 107.756 0.634146C108.146 0.341463 108.537 0.195122 109.073 0.195122C109.512 0.195122 110 0.341463 110.39 0.634146C110.78 0.926829 110.976 1.31707 111.219 1.70732L114.341 10.4878L117.561 1.70732C117.707 1.26829 118 0.878049 118.39 0.634146C118.78 0.341463 119.219 0.243902 119.707 0.243902C120.39 0.243902 120.927 0.487805 121.317 0.926829C121.756 1.36585 122 1.90244 122 2.58537C121.854 2.73171 121.854 2.87805 121.805 2.97561Z" fill="#1F304C"/>
</g>
<defs>
<clipPath id="clip0">
<rect width="121.951" height="20" fill="white"/>
</clipPath>
</defs>
</svg>
